_includes/icons/ios-commit-git.svg

<svg fill="#666" height="50" viewBox="0 0 50 50" width="50" xmlns="http://www.w3.org/2000/svg"><path d="m25 20c-2.40625 0-4.4375 1.726563-4.90625 4h-18.09375v2h18.09375c.46875 2.273438 2.5 4 4.90625 4s4.4375-1.726562 4.90625-4h18.09375v-2h-18.09375c-.46875-2.273437-2.5-4-4.90625-4zm0 2c1.667969 0 3 1.332031 3 3s-1.332031 3-3 3-3-1.332031-3-3 1.332031-3 3-3z"/></svg>

<svg xmlns="http://www.w3.org/2000/svg" viewBox="0 0 50 50" width="50" height="50" fill="#666"><path d="M 25 20 C 22.59375 20 20.5625 21.726563 20.09375 24 L 2 24 L 2 26 L 20.09375 26 C 20.5625 28.273438 22.59375 30 25 30 C 27.40625 30 29.4375 28.273438 29.90625 26 L 48 26 L 48 24 L 29.90625 24 C 29.4375 21.726563 27.40625 20 25 20 Z M 25 22 C 26.667969 22 28 23.332031 28 25 C 28 26.667969 26.667969 28 25 28 C 23.332031 28 22 26.667969 22 25 C 22 23.332031 23.332031 22 25 22 Z"/></svg>
